X: 3379
T: Benjamin Hop, The
R: reel
M: 4/4
K: Gmajor
|:dG (3GGG dG eG|dG (3GGG ge dB|A2 AB cd ef|ge dB AD eD|
dg (3GGG dGeG|dG (3GGG ge dB|AB cd ec fg|dB AB G4:|
|:ec egag fe|d2 ba ge dB|AD (3DDD dD FA|GD GA BG Bd|
ec eg ag fe|d2 ba ge dB|AB cd ec fg|1 dB AB GA Bd:|2 dB AB G4||

